static/img/in-field/spinner.svg

<svg width="1088" height="158" viewBox="0 0 1088 158" fill="none" xmlns="http://www.w3.org/2000/svg">
<rect width="1087" height="158" transform="translate(0.5)" fill="#F1F1F6"/>
<path fill-rule="evenodd" clip-rule="evenodd" d="M430 100C441.598 100 451 90.598 451 79C451 68.0451 442.612 59.0493 431.908 58.0855C430.858 57.9909 430 58.8547 430 59.9091C430 60.9634 430.858 61.807 431.906 61.9227C440.498 62.871 447.182 70.155 447.182 79C447.182 88.4893 439.489 96.1818 430 96.1818C421.155 96.1818 413.871 89.4983 412.923 80.906C412.807 79.858 411.963 79 410.909 79C409.855 79 408.991 79.8576 409.085 80.9077C410.049 91.6117 419.045 100 430 100Z" fill="#0063A3"/>
<path fill-rule="evenodd" clip-rule="evenodd" d="M466 79C466 90.598 475.402 100 487 100C497.955 100 506.951 91.6117 507.915 80.9077C508.009 79.8576 507.145 79 506.091 79C505.037 79 504.193 79.858 504.077 80.906C503.129 89.4983 495.845 96.1818 487 96.1818C477.511 96.1818 469.818 88.4893 469.818 79C469.818 70.155 476.502 62.871 485.094 61.9227C486.142 61.807 487 60.9634 487 59.9091C487 58.8547 486.142 57.9909 485.092 58.0855C474.388 59.0493 466 68.0451 466 79Z" fill="#0063A3"/>
<path fill-rule="evenodd" clip-rule="evenodd" d="M544 58C532.402 58 523 67.402 523 79C523 89.9549 531.388 98.9507 542.092 99.9145C543.142 100.009 544 99.1453 544 98.0909C544 97.0366 543.142 96.193 542.094 96.0773C533.502 95.129 526.818 87.845 526.818 79C526.818 69.5107 534.511 61.8182 544 61.8182C552.845 61.8182 560.129 68.5017 561.077 77.094C561.193 78.142 562.037 79 563.091 79C564.145 79 565.009 78.1424 564.915 77.0923C563.951 66.3883 554.955 58 544 58Z" fill="#0063A3"/>
<path fill-rule="evenodd" clip-rule="evenodd" d="M622 79C622 67.402 612.598 58 601 58C590.045 58 581.049 66.3883 580.085 77.0923C579.991 78.1424 580.855 79 581.909 79C582.963 79 583.807 78.142 583.923 77.094C584.871 68.5017 592.155 61.8182 601 61.8182C610.489 61.8182 618.182 69.5107 618.182 79C618.182 87.845 611.498 95.129 602.906 96.0773C601.858 96.193 601 97.0366 601 98.0909C601 99.1453 601.858 100.009 602.908 99.9145C613.612 98.9507 622 89.9549 622 79Z" fill="#0063A3"/>
<path fill-rule="evenodd" clip-rule="evenodd" d="M658 58C646.402 58 637 67.402 637 79C637 89.9549 645.388 98.9507 656.092 99.9145C657.142 100.009 658 99.1453 658 98.0909C658 97.0366 657.142 96.193 656.094 96.0773C647.502 95.129 640.818 87.845 640.818 79C640.818 69.5107 648.511 61.8182 658 61.8182C666.845 61.8182 674.129 68.5017 675.077 77.094C675.193 78.142 676.037 79 677.091 79C678.145 79 679.009 78.1424 678.915 77.0923C677.951 66.3883 668.955 58 658 58Z" fill="#0063A3"/>
</svg>

<svg width="1088" height="158" fill="none" xmlns="http://www.w3.org/2000/svg"><path fill="#F1F1F6" d="M.5 0h1087v158H.5z"/><path fill-rule="evenodd" clip-rule="evenodd" d="M430 100c11.598 0 21-9.402 21-21 0-10.955-8.388-19.95-19.092-20.914-1.05-.095-1.908.769-1.908 1.823 0 1.054.858 1.898 1.906 2.014 8.592.948 15.276 8.232 15.276 17.077 0 9.49-7.693 17.182-17.182 17.182-8.845 0-16.129-6.684-17.077-15.276-.116-1.048-.96-1.906-2.014-1.906-1.054 0-1.918.858-1.824 1.908C410.049 91.612 419.045 100 430 100zM466 79c0 11.598 9.402 21 21 21 10.955 0 19.951-8.388 20.915-19.092.094-1.05-.77-1.908-1.824-1.908s-1.898.858-2.014 1.906c-.948 8.592-8.232 15.276-17.077 15.276-9.489 0-17.182-7.693-17.182-17.182 0-8.845 6.684-16.129 15.276-17.077 1.048-.116 1.906-.96 1.906-2.014 0-1.054-.858-1.918-1.908-1.823C474.388 59.049 466 68.046 466 79zM544 58c-11.598 0-21 9.402-21 21 0 10.955 8.388 19.95 19.092 20.915 1.05.094 1.908-.77 1.908-1.824s-.858-1.898-1.906-2.014c-8.592-.948-15.276-8.232-15.276-17.077 0-9.49 7.693-17.182 17.182-17.182 8.845 0 16.129 6.684 17.077 15.276.116 1.048.96 1.906 2.014 1.906 1.054 0 1.918-.858 1.824-1.908C563.951 66.388 554.955 58 544 58zM622 79c0-11.598-9.402-21-21-21-10.955 0-19.951 8.388-20.915 19.092-.094 1.05.77 1.908 1.824 1.908s1.898-.858 2.014-1.906c.948-8.592 8.232-15.276 17.077-15.276 9.489 0 17.182 7.693 17.182 17.182 0 8.845-6.684 16.129-15.276 17.077-1.048.116-1.906.96-1.906 2.014 0 1.054.858 1.918 1.908 1.824C613.612 98.95 622 89.954 622 79zM658 58c-11.598 0-21 9.402-21 21 0 10.955 8.388 19.95 19.092 20.915 1.05.094 1.908-.77 1.908-1.824s-.858-1.898-1.906-2.014c-8.592-.948-15.276-8.232-15.276-17.077 0-9.49 7.693-17.182 17.182-17.182 8.845 0 16.129 6.684 17.077 15.276.116 1.048.96 1.906 2.014 1.906 1.054 0 1.918-.858 1.824-1.908C677.951 66.388 668.955 58 658 58z" fill="#0063A3"/></svg>
